X:557
T:Miss MacDowal Grant of Arndilly
R:Strathspey
C:William Marshall
B:The Athole Collection
M:C
L:1/8
K:C Minor
g|G<G c>d e2 e>g|f<bd<f B>c d<B|G<G c>d e2 e>g|f>b g/f/e/d/ c2c:|
g/a/|b<cg<c b<c g>a|b>gf>b d>Bf>d|b<cg<c b<c g>a|b>gf>d c2 cg/a/|
b<cg<c b<c g>a|b>g f<b d>bf>d|G<G c>d e2 e>g|f>b g/f/e/d/ c2 c||

